X:1
T:Sur tous regrets
T:Jean Richafort
T:Source : Publikation älterer praktischer und theoretischer Musik-Werke---R.Eitner--- Berlin---Liepmannssohn und M.Bahn---1873. Editor : André Vierendeels (18/11/17). Notes : Original clefs : C1, C3, C4, F4 Original note values have been halved Editorial accidentals above the staff
T:Sur tous regrets
T:©
T:©
T:©
T:©
C:Jean Richafort
Z:©
%%score [ 1 [ 2 3 ] 4 ]
L:1/8
Q:1/4=120
M:2/2
K:F
V:1 treble nm="Soprano" snm="S"
V:2 treble-8 nm="Tenor 1" snm="T 1"
V:3 treble-8 nm="Tenor 2" snm="T 2"
V:4 bass nm="Bass" snm="B"
V:1
 z8 | z8 | D8 | F4 F3 E/F/ | G8 | z2 B2 A2 G2 | F8 | z2 F2 G2 B2 | A2 c3 BAG | FEFD EF G2- | %10
w: ||Sur|tous re- * *|grets,|sur tous re-|grets,|le mien plus|pi- teux _ _ _|_ _ _ _ _ _ _|
 G2 F2 E4- | E4 z4 | z4 z2 F2 | G2 B4 AG | AGFE D3 E | F2 G2 E2 E2 | D8- | D4 z2 C2 | D2 F4 E2- | %19
w: * pleu- re,|_|je-|tant _ _ _|_ _ _ _ _ _|* * * sou-|pirs,|_ trans-|per- çant mon|
 E2 D4 C2 | D8- | D8 | z2 D3 EFG | A2 B3 A A2- | AF G2 A2 AG | FE F4 B2 | A2 G4 F2 | G4 z4 | %28
w: _ _ las|coeur,|_|car _ _ _|_ j'ai _ _|_ _ _ per- du _|_ _ l'a- mi-|a- ble li-|queur,|
 B4 ABcA | BAGF ED E2 | D8 | z4 z2 G2 | G3 F E2 D2 | F3 E/D/ CDEF | E2 D4 C2 | D4 z4 | B4 ABcA | %37
w: que tant _ _ _|_ _ _ _ _ _ je|plains|et|plain- * drai en|am- * * pl'heu- * * *||re,|que tant _ _ _|
 BAGF ED E2 | D8 | z4 z2 G2 | G3 F E2 D2 | F3 E/D/ CDEF | E2 D4 C2 | D8- | D8- | D8- | D8- | D8- | %48
w: _ _ _ _ _ _ je|plains,|et|plain- * drai en|am- * * pl'heu- * * *||re,|_||||
 D8- | D8 |] %50
w: ||
V:2
 z4 d4 | d4 c2 d2- | d2 cB A2 B2- | B2 AG A4 | G2 d2 B2 c2 | d4 z2 G2 | A2 A2 B3 A | GF f4 e2 | %8
w: Sur|tous re- *|||grets, sur tous re-|grets, le|mien plus pi- *||
 f8 | d4 c2 B2 | c4 z4 | z2 B2 cBcd |"^b" e2 d3 cBA | G2 d4 cB | c2 A2 B3 c |"^#" dG d4 c2 | %16
w: teux|pleu- * *|re,|je tant _ _ _|_ sou- * * *||pirs trans- per- *||
 d4 z4 | z2 d2 f2 f2 | f3 e d2 c2 | A2 B2 A4 | A4 z2 G2- | G2 F2 B4 | A4 z2 d2 | c2 d3 e f2- | %24
w: çant|je tant sou-|pirs _ trans- per-|çant mon las|coeur, car|_ j'ai per-|du l'a-|mia- ble li- queur,|
 f2 ed e4 | d2 d2 f2 f2 | f2 e2 dcBA | B8 | z2 d2 f3 e | fe d4 c2 | d4 A4 | z2 c2 c2 c2 | %32
w: _ _ _ _|l'a- mi- a- ble|li- queur, _ _ _ _|_|que tant _|_ _ _ _|je plains,|que tant je|
 B2 c2 G2 B2- | BA A4 GF | G4 A4 | F4 z2 f2 | f2 e2 f3 e | fe d4 c2 | d4 A4 | z2 c2 c2 c2 | %40
w: plains et plain- drai|_ _ en _ _|am- pl'heu-|re, plain-|drai en am- *|* * pl'heu- *|* re,|que tant je|
 B2 c2 G2 B2- | BA A4 GF | G4 A4 | A8 | z4 z2 G2 | B2 d3 c B2 | A2 G4 F2 | G2 d2 B2 d2- | dcBA B4 | %49
w: plains et plain- drai|_ _ _ en _|am- pl'heu-|re,|sue|tous re- * *||grets, sur tous re-||
 A8 |] %50
w: grets.|
V:3
 z8 | z8 | z8 | d8 |"^b" B3 c d2 e2- | ed d3 ccB | d8 | z4 B4 | c3 B A2 d2- | dcBA G4 | A2 B3 AGF | %11
w: |||Sur|tous _ _ re-||grets,|le|mien _ _ plus|_ _ _ _ _|* pi- * * *|
 ED G4 F2 | G4 D4 | z8 | z2 F2 G2 B2- | B2 AG A4 | D4 z2 G2 | G2 G2 F3 E/D/ | FG A2 D2 E2 | %19
w: * * * teux|pleu- re,||je- tant sou-||pirs trans-|per- çant mon _ _|_ _ _ _ _|
 F2 G2 E4 | D8 | z4 z2 G2- | G2 F2 B3 A/B/ | A2 G2 d4- | d2 cB c4 | z2 A2 d2 d2 | c2 B2 A4 | %27
w: * * las|coeur,|car|_ j'ai per- * *||* * * du|l'a- mi- a-|* ble li-|
 G4 z2 G2- | GA B2 c2 F2- | F2 G2 A4 | D2 F3 EFD | E8 | z2 G2 G2 G2 | F2 D2 F2 ED | C2 D2 E4 | %35
w: queur, que|_ _ tant je plains|_ et plain-||drai,|que tant je|plains et plain- * *||
 D4 d4- | d2 B2 c2 F2- | F2 G2 A4 | D2 F3 EFD | E8 | z2 G2 G2 G2 | F2 D2 F2 ED | C2 D2 E4 | %43
w: drai- en|_ am- pl'heu- *|||re,|que tant je|plains et plain- drai _|en am- pl'heu-|
 D4 z2 D2 | D3 E F2 G2- | G2 FE D2 d2- | dc B2 A4 | G4 z2 D2 | D4 G4 | F8 |] %50
w: re, sur|tous _ _ re-|||grets, sur|tous re-|grets.|
V:4
 D,4 D,3 E, | F,2 G,2 A,2 B,2- | B,2 A,G, F,2 G,2 | D,8 | z2 G,2 G,2 C,2 | G,3 G, F,2 E,2 | %6
w: Sur tous _|_ re- * *||grets,|sur tous re-|grets, le mien plus|
"^b" D,3 C, B,,2 B,2- | B,2 A,2 G,4 | F,8 |"^b" z2 B,,2 C,2 E,2 | D,4 B,,2 C,2- | C,B,, G,,2 A,,4 | %12
w: pi- * * *||teux,|le mien plus|pi- * *|* * teux pleu-|
 G,,4 z4 | z8 | z8 | z8 | z2 F,2 G,2 B,2- | B,2 A,G, A,4 | D,4 B,,2 C,2 | D,2 G,,2 A,,4 | %20
w: re,||||je tant sou-||pirs trans- per-|* * çant|
 z2 D,2 B,,2 G,,2 | D,3 C, B,,2 G,,2 | D,4 z4 | z2 G,4 F,2 | B,4 A,4 | D,4 D,2 D,2 | F,2 G,2 D,4 | %27
w: mon _ _|_ _ _ las|coeur,|car j'ai|per- du|l'a- mi- a-|blr li- queur,|
 z2 G,3 A, B,2- | B,A, G,2 F,4 | B,,4 z4 | z2 D,2 D,2 D,2 | C,2 A,,2 C,3 B,,/A,,/ | %32
w: que _ _|_ _ tant je|plains,|que tant je|plains et plain- * *|
 G,,2 C,3 A,,B,,C, | D,3 C,/B,,/ A,,B,, C,2- | C,2 B,,2 A,,4 | z2 D,3 E,F,D, | G,4 F,4 | B,,4 z4 | %38
w: ||* * drai|en am- * *|* pl'heu-|re,|
"^#" z2 D,2 D,2 D,2 | C,2 A,,2 C,3 B,,/A,,/ | G,,2 C,3 A,,B,,C, | D,3 C,/B,,/ A,,B,, C,2- | %42
w: que tant je|plains et plain- * *|||
 C,2 B,,2 A,,4 | z2 D,2 D,3 E, | F,2 G,2 A,2 B,2- | B,2 A,G, F,2 G,2 | D,8 | z2 G,,2 G,,2 G,,2 | %48
w: * * drai,|sur tous _|_ _ re- *||grets,|sur tous re-|
 B,,6 A,,G,, | D,8 |] %50
w: grets. _ _|_|

